assets/svg/action_search_deletehistory.svg

<svg width="80" height="80" viewBox="0 0 80 80" fill="none" xmlns="http://www.w3.org/2000/svg">
<path d="M54.8125 69.9082C54.4734 69.9082 54.1984 70.1831 54.1984 70.5223C54.1984 72.866 52.2984 74.766 49.9547 74.766H31.1953C29.6859 74.766 28.4609 75.991 28.4609 77.5004H49.9547C53.8094 77.5004 56.9328 74.3754 56.9328 70.5223V69.9082H54.8125Z" fill="#E1EAF8"/>
<path d="M43.9438 8.05313H32.4609C31.5203 8.05313 30.6844 7.45156 30.3859 6.55781L29.0312 2.5H47.3719L46.0187 6.55781C45.8732 6.99307 45.5946 7.37159 45.2223 7.63991C44.8499 7.90823 44.4027 8.05277 43.9438 8.05313Z" fill="#E1EAF8"/>
<path d="M43.0165 63.4894C43.1137 63.4572 43.1955 63.3997 43.2583 63.3259C43.3196 63.2542 43.3613 63.1679 43.3793 63.0754C43.3973 62.9828 43.391 62.8872 43.361 62.7978C43.3383 62.7297 43.3024 62.6667 43.2554 62.6125C43.2083 62.5583 43.151 62.5139 43.0867 62.4819C43.0225 62.4499 42.9525 62.4309 42.8809 62.426C42.8093 62.4211 42.7374 62.4304 42.6693 62.4533L38.812 63.748C38.7439 63.7707 38.6809 63.8066 38.6267 63.8537C38.5725 63.9007 38.5281 63.958 38.4961 64.0223C38.4641 64.0866 38.4451 64.1565 38.4402 64.2282C38.4353 64.2998 38.4446 64.3717 38.4675 64.4397C38.4902 64.5078 38.5261 64.5708 38.5732 64.625C38.6203 64.6792 38.6776 64.7236 38.7418 64.7556C38.8061 64.7876 38.8761 64.8066 38.9477 64.8115C39.0193 64.8164 39.0912 64.8071 39.1592 64.7842L43.0165 63.4894Z" fill="#FD4E4E"/>
<path d="M47.5186 71.9684C47.6441 71.9463 47.758 71.8811 47.8406 71.784C47.8831 71.734 47.9181 71.6736 47.9416 71.6074L49.2647 67.76C49.3625 67.4739 49.2111 67.1624 48.925 67.0646C48.6389 66.9668 48.3274 67.1183 48.2296 67.4044L46.9066 71.2518C46.8651 71.3723 46.8671 71.5035 46.9121 71.6228C46.9571 71.742 47.0423 71.8418 47.153 71.9049C47.2638 71.968 47.3931 71.9904 47.5186 71.9684Z" fill="#FD4E4E"/>
<path d="M68.8487 44.3211C68.7515 44.3533 68.6697 44.4109 68.6069 44.4847C68.5456 44.5563 68.504 44.6426 68.486 44.7352C68.468 44.8277 68.4743 44.9234 68.5042 45.0128C68.5269 45.0809 68.5628 45.1439 68.6099 45.1981C68.6569 45.2523 68.7143 45.2967 68.7785 45.3287C68.8428 45.3607 68.9127 45.3797 68.9844 45.3846C69.056 45.3895 69.1279 45.3802 69.1959 45.3573L73.0532 44.0625C73.1213 44.0399 73.1843 44.0039 73.2385 43.9569C73.2927 43.9098 73.3371 43.8525 73.3691 43.7882C73.4011 43.724 73.4201 43.654 73.425 43.5824C73.4299 43.5108 73.4206 43.4389 73.3977 43.3709C73.375 43.3027 73.3391 43.2398 73.292 43.1856C73.245 43.1314 73.1877 43.087 73.1234 43.055C73.0591 43.023 72.9892 43.004 72.9176 42.9991C72.8459 42.9942 72.774 43.0034 72.706 43.0264L68.8487 44.3211Z" fill="#FD4E4E"/>
<path d="M64.3466 35.8422C64.2211 35.8642 64.1072 35.9294 64.0247 36.0265C63.9821 36.0765 63.9471 36.137 63.9236 36.2031L62.6005 40.0506C62.5027 40.3366 62.6542 40.6481 62.9403 40.7459C63.2263 40.8437 63.5378 40.6923 63.6356 40.4062L64.9587 36.5588C65.0001 36.4382 64.9982 36.307 64.9532 36.1878C64.9082 36.0686 64.8229 35.9688 64.7122 35.9057C64.6015 35.8426 64.4722 35.8201 64.3466 35.8422Z" fill="#FD4E4E"/>
<path d="M56.2254 69.6327C56.2254 69.3311 56.4707 69.0858 56.7723 69.0858C57.0754 69.0858 57.3191 69.3296 57.3176 69.6327V70.5218C57.3176 74.6702 53.9426 78.0468 49.7926 78.0468H26.2848C22.1363 78.0468 18.7598 74.6718 18.7598 70.5218L18.7604 67.9993L18.7598 64.2137C18.7598 63.9112 19.005 63.666 19.3075 63.666C19.6099 63.666 19.8551 63.9112 19.8551 64.2136V70.5218C19.8551 74.0671 22.7395 76.953 26.2863 76.953H49.7941C53.3395 76.953 56.2254 74.0686 56.2254 70.5218V69.6327Z" fill="#9A9A9A"/>
<path d="M27.3883 38.5645H46.5086C46.8102 38.5645 47.0555 38.3191 47.0555 38.0176C47.0555 37.716 46.8102 37.4707 46.5086 37.4707H27.3883C27.0867 37.4707 26.8414 37.716 26.8414 38.0176C26.8414 38.3191 27.0867 38.5645 27.3883 38.5645Z" fill="#9A9A9A"/>
<path d="M27.3863 44.0035H41.5066C41.8082 44.0035 42.0535 43.7582 42.0535 43.4566C42.0535 43.155 41.8082 42.9097 41.5066 42.9097H27.3863C27.0848 42.9097 26.8395 43.155 26.8395 43.4566C26.8395 43.7582 27.0848 44.0035 27.3863 44.0035ZM37.0332 49.1129H27.3301C27.0285 49.1129 26.7832 49.3582 26.7832 49.6597C26.7832 49.9613 27.0285 50.2066 27.3301 50.2066H37.0332C37.3348 50.2066 37.5801 49.9613 37.5801 49.6597C37.5801 49.3582 37.3348 49.1129 37.0332 49.1129ZM37.0332 54.5519H27.3301C27.0285 54.5519 26.7832 54.7972 26.7832 55.0988C26.7832 55.4004 27.0285 55.6457 27.3301 55.6457H37.0332C37.3348 55.6457 37.5801 55.4004 37.5801 55.0988C37.5801 54.7972 37.3348 54.5519 37.0332 54.5519Z" fill="#9A9A9A"/>
<path d="M18.7609 9.47813V60.0273C18.7609 60.3298 19.0061 60.575 19.3086 60.575C19.6111 60.575 19.8563 60.3298 19.8563 60.0273V9.47813C19.8563 5.93281 22.7406 3.04688 26.2875 3.04688H49.7953C53.3406 3.04688 56.2266 5.93125 56.2266 9.47813V38.1719C56.2266 38.4734 56.4719 38.7188 56.7734 38.7188C57.075 38.7188 57.3203 38.4734 57.3203 38.1719V9.47813C57.3203 5.32969 53.9453 1.95312 49.7953 1.95312H26.2859C22.1375 1.95312 18.7609 5.32813 18.7609 9.47813Z" fill="#9A9A9A"/>
<path d="M58.6482 49.9201H54.9621C55.109 49.717 55.2287 49.5204 55.3065 49.3771C55.3628 49.2734 55.4725 49.1929 55.6096 49.1719C55.6345 49.1681 55.6686 49.1667 55.8452 49.1667H57.8502C58.0267 49.1667 58.0609 49.1681 58.0858 49.1719C58.2584 49.1983 58.3315 49.2579 58.3764 49.3527C58.3875 49.376 58.4015 49.408 58.4185 49.4467C58.4693 49.5624 58.5463 49.7379 58.6482 49.9201Z" fill="#FD4E4E"/>
<path fill-rule="evenodd" clip-rule="evenodd" d="M57 66C63.6274 66 69 60.6274 69 54C69 47.3726 63.6274 42 57 42C50.3726 42 45 47.3726 45 54C45 60.6274 50.3726 66 57 66ZM55.8165 48.1667C55.6853 48.1666 55.5686 48.1665 55.4582 48.1834C55.0237 48.2499 54.6388 48.5112 54.4278 48.8999C54.3331 49.0742 54.1526 49.3586 53.9464 49.5931C53.8434 49.7103 53.7461 49.8011 53.6619 49.8596C53.5915 49.9085 53.5548 49.918 53.5483 49.9196C53.5476 49.9198 53.5473 49.9199 53.5473 49.92C53.5401 49.9201 53.5298 49.9201 53.5012 49.9201H51.6667C51.3905 49.9201 51.1667 50.144 51.1667 50.4201C51.1667 50.6963 51.3905 50.9201 51.6667 50.9201H62.3333C62.6095 50.9201 62.8333 50.6963 62.8333 50.4201C62.8333 50.144 62.6095 49.9201 62.3333 49.9201H60.1941C60.1622 49.9201 60.1531 49.9201 60.1457 49.9199L60.1337 49.9198C59.9401 49.9197 59.7886 49.8228 59.639 49.6189C59.5153 49.4502 59.4364 49.2727 59.3582 49.0966C59.3326 49.0389 59.307 48.9813 59.28 48.9243C59.0537 48.447 58.6361 48.2445 58.2371 48.1834C58.1267 48.1665 58.01 48.1666 57.8788 48.1667H55.8165ZM53.3332 51.9925C53.3141 51.7171 53.0752 51.5093 52.7998 51.5284C52.5243 51.5476 52.3165 51.7864 52.3357 52.0619L52.6185 56.13C52.6703 56.8756 52.7127 57.4857 52.8125 57.9662C52.9173 58.4705 53.0973 58.8982 53.47 59.2325C53.84 59.5644 54.289 59.7048 54.8111 59.7703C55.3137 59.8334 55.9479 59.8333 56.7302 59.8333H57.2688C58.0512 59.8333 58.6854 59.8334 59.1879 59.7703C59.71 59.7048 60.1591 59.5644 60.5291 59.2325C60.9018 58.8982 61.0818 58.4705 61.1865 57.9662C61.2864 57.4858 61.3288 56.8756 61.3806 56.1301L61.6634 52.0619C61.6826 51.7864 61.4748 51.5476 61.1993 51.5284C60.9238 51.5093 60.685 51.7171 60.6658 51.9925L60.3855 56.025C60.3305 56.815 60.2918 57.3568 60.2074 57.7628C60.1265 58.1527 60.0159 58.3495 59.8613 58.4881C59.7041 58.6292 59.4841 58.7253 59.0634 58.7781C58.6304 58.8324 58.0592 58.8333 57.2352 58.8333H56.7638C55.9398 58.8333 55.3686 58.8324 54.9356 58.7781C54.515 58.7253 54.295 58.6292 54.1377 58.4882C53.9832 58.3495 53.8726 58.1527 53.7916 57.7628C53.7073 57.3568 53.6685 56.815 53.6136 56.025L53.3332 51.9925ZM55.973 53.4366C55.9444 53.1619 55.6985 52.9625 55.4239 52.9911C55.1492 53.0198 54.9498 53.2656 54.9784 53.5403L55.2832 56.4627C55.3118 56.7374 55.5577 56.9368 55.8323 56.9082C56.107 56.8795 56.3064 56.6337 56.2778 56.359L55.973 53.4366ZM59.0206 53.5403C59.0493 53.2656 58.8498 53.0198 58.5752 52.9911C58.3005 52.9625 58.0547 53.1619 58.026 53.4366L57.7213 56.359C57.6926 56.6337 57.8921 56.8795 58.1667 56.9082C58.4414 56.9368 58.6872 56.7374 58.7159 56.4627L59.0206 53.5403Z" fill="#FD4E4E"/>
<path d="M37.4709 27.94C38.6757 27.94 39.8364 27.6566 40.8781 27.1211L41.3473 27.5904C41.5246 27.7677 41.7568 27.8559 41.9896 27.8559C42.2225 27.8559 42.4546 27.7677 42.6319 27.5904L44.3893 25.833L48.181 29.6246C48.6096 30.0533 48.6096 30.7511 48.181 31.1804C47.973 31.3884 47.6968 31.5023 47.4034 31.5023C47.11 31.5023 46.8337 31.3876 46.6258 31.1804L43.5134 28.0681C43.4159 27.9706 43.2585 27.9706 43.161 28.0681C43.0634 28.1657 43.0634 28.323 43.161 28.4206L46.2726 31.5322C46.5746 31.8341 46.9762 32 47.4027 32C47.8299 32 48.2308 31.8341 48.5327 31.5315C49.1558 30.9084 49.1558 29.8945 48.5327 29.2715L44.7261 25.4649C44.9518 25.1139 44.9112 24.6397 44.6043 24.3328L44.1308 23.8593C44.6598 22.8226 44.9404 21.6676 44.9404 20.47C44.9404 18.4749 44.1635 16.5993 42.7522 15.1881C41.3416 13.7775 39.4654 13 37.4702 13C35.475 13 33.5994 13.7768 32.1882 15.1881C30.7776 16.5986 30 18.4749 30 20.47C30 22.4651 30.7769 24.3406 32.1882 25.7519C33.5994 27.1624 35.4757 27.94 37.4709 27.94ZM44.2518 24.6852C44.3284 24.7621 44.3714 24.8662 44.3714 24.9747C44.3714 25.0832 44.3284 25.1873 44.2518 25.2641L42.2787 27.2372C42.2019 27.3138 42.0978 27.3568 41.9893 27.3568C41.8808 27.3568 41.7767 27.3138 41.6998 27.2372L41.3303 26.8676C41.8415 26.5579 42.3193 26.1848 42.7522 25.7512C43.1901 25.3133 43.5675 24.8298 43.8787 24.3121L44.2518 24.6852ZM32.5413 15.5405C33.8579 14.224 35.6089 13.4984 37.4709 13.4984C39.3329 13.4984 41.0839 14.2233 42.4005 15.5405C43.7171 16.8571 44.4427 18.608 44.4427 20.47C44.4427 22.332 43.7178 24.0829 42.4005 25.3994C41.0839 26.716 39.3329 27.4415 37.4709 27.4415C35.6089 27.4415 33.8579 26.7167 32.5413 25.3994C31.2247 24.0829 30.4992 22.332 30.4992 20.47C30.4992 18.608 31.2247 16.8578 32.5413 15.5405Z" fill="#9A9A9A" stroke="#9A9A9A" stroke-width="0.5"/>
<path d="M41.389 16.611C39.241 14.463 35.759 14.463 33.611 16.611C31.463 18.759 31.463 22.241 33.611 24.389C35.759 26.537 39.241 26.537 41.389 24.389C43.537 22.241 43.537 18.7583 41.389 16.611ZM40.9577 17.3722C40.936 17.3938 40.9103 17.4109 40.882 17.4226C40.8537 17.4343 40.8234 17.4403 40.7928 17.4403C40.7327 17.4403 40.6732 17.4176 40.6272 17.3715C39.9081 16.6524 38.9559 16.2004 37.9464 16.0989C37.9158 16.0958 37.8862 16.0868 37.8592 16.0723C37.8321 16.0578 37.8082 16.0381 37.7888 16.0144C37.7694 15.9906 37.7549 15.9633 37.746 15.9339C37.7372 15.9045 37.7343 15.8737 37.7374 15.8431C37.7404 15.8126 37.7494 15.783 37.7639 15.7559C37.7784 15.7289 37.7981 15.705 37.8219 15.6856C37.8456 15.6662 37.873 15.6516 37.9024 15.6428C37.9317 15.634 37.9626 15.631 37.9931 15.6341C39.1095 15.747 40.1624 16.2464 40.9577 17.0417C40.9794 17.0633 40.9967 17.0891 41.0084 17.1174C41.0202 17.1458 41.0263 17.1762 41.0263 17.2069C41.0263 17.2376 41.0202 17.268 41.0084 17.2964C40.9967 17.3247 40.9794 17.3505 40.9577 17.3722ZM41.7896 18.6695C41.7569 18.6855 41.7215 18.6929 41.6875 18.6929C41.6007 18.6929 41.5179 18.6448 41.4771 18.5613C41.4071 18.4177 41.3293 18.2779 41.2441 18.1427C41.1753 18.0339 41.2081 17.889 41.3169 17.8202C41.4257 17.7514 41.5706 17.7841 41.6394 17.893C41.7335 18.0419 41.8203 18.1981 41.8971 18.3557C41.9539 18.4732 41.9058 18.6127 41.7896 18.6695Z" fill="#E1EAF8"/>
</svg>

<svg xmlns="http://www.w3.org/2000/svg" width="80" height="80" fill="none"><path fill="#E1EAF8" d="M54.813 69.908a.614.614 0 0 0-.615.614c0 2.344-1.9 4.244-4.243 4.244h-18.76a2.735 2.735 0 0 0-2.734 2.734h21.494a6.98 6.98 0 0 0 6.978-6.978v-.614zM43.944 8.053H32.46c-.94 0-1.777-.601-2.075-1.495L29.03 2.5h18.34L46.02 6.558a2.19 2.19 0 0 1-2.075 1.495"/><path fill="#FD4E4E" d="M43.017 63.49a.546.546 0 1 0-.347-1.036l-3.858 1.294a.545.545 0 1 0 .347 1.036zM47.519 71.968a.55.55 0 0 0 .423-.36l1.323-3.848a.547.547 0 1 0-1.035-.356l-1.323 3.848a.547.547 0 0 0 .612.716M68.849 44.321a.54.54 0 0 0-.363.414.546.546 0 0 0 .71.622l3.857-1.294a.545.545 0 1 0-.347-1.037zM64.347 35.842a.55.55 0 0 0-.423.361L62.6 40.051a.547.547 0 1 0 1.036.355l1.323-3.847a.547.547 0 0 0-.612-.717"/><path fill="#9A9A9A" d="M56.225 69.633c0-.302.246-.547.547-.547.303 0 .547.244.546.547v.889c0 4.148-3.375 7.525-7.525 7.525H26.285c-4.149 0-7.525-3.375-7.525-7.525v-6.308a.548.548 0 0 1 1.095 0v6.308a6.44 6.44 0 0 0 6.431 6.431h23.508a6.44 6.44 0 0 0 6.431-6.431zM27.388 38.565h19.12a.548.548 0 0 0 0-1.094h-19.12a.547.547 0 0 0 0 1.094M27.386 44.004h14.12a.547.547 0 0 0 0-1.094h-14.12a.547.547 0 0 0 0 1.094m9.647 5.109H27.33a.547.547 0 0 0 0 1.094h9.703a.547.547 0 0 0 0-1.094m0 5.439H27.33a.547.547 0 0 0 0 1.094h9.703a.547.547 0 0 0 0-1.094"/><path fill="#9A9A9A" d="M18.76 9.478v50.55a.548.548 0 1 0 1.096 0V9.477a6.44 6.44 0 0 1 6.432-6.431h23.507a6.44 6.44 0 0 1 6.432 6.431v28.694a.548.548 0 0 0 1.093 0V9.478c0-4.148-3.375-7.525-7.525-7.525h-23.51c-4.148 0-7.524 3.375-7.524 7.525"/><path fill="#FD4E4E" d="M58.648 49.92h-3.686c.147-.203.267-.4.344-.543a.41.41 0 0 1 .304-.205 2 2 0 0 1 .235-.005h2.005c.177 0 .21.001.236.005.172.026.245.086.29.18q.018.036.043.095c.05.115.127.29.23.473"/><path fill="#FD4E4E" fill-rule="evenodd" d="M57 66c6.627 0 12-5.373 12-12s-5.373-12-12-12-12 5.373-12 12 5.373 12 12 12m-1.184-17.833c-.13 0-.247 0-.358.016-.434.067-.82.328-1.03.717a4 4 0 0 1-.482.693q-.156.177-.284.267a.4.4 0 0 1-.115.06h-1.88a.5.5 0 1 0 0 1h10.666a.5.5 0 1 0 0-1h-2.199c-.194 0-.345-.097-.495-.301a2.7 2.7 0 0 1-.28-.522l-.079-.173c-.226-.477-.644-.68-1.043-.74-.11-.017-.227-.017-.358-.017zm-2.483 3.825a.5.5 0 0 0-.997.07l.282 4.068c.052.746.095 1.356.194 1.836.105.505.285.932.658 1.267.37.331.819.472 1.341.537.503.063 1.137.063 1.92.063h.538c.782 0 1.416 0 1.919-.063.522-.065.971-.206 1.341-.538.373-.334.553-.761.657-1.266.1-.48.143-1.09.195-1.836l.282-4.068a.5.5 0 1 0-.997-.07l-.28 4.033c-.056.79-.094 1.332-.179 1.738-.08.39-.191.587-.346.725-.157.141-.377.237-.798.29-.433.054-1.004.055-1.828.055h-.471c-.824 0-1.395 0-1.828-.055-.421-.053-.641-.149-.798-.29-.155-.139-.265-.335-.346-.725-.085-.406-.123-.948-.178-1.738zm2.64 1.445a.5.5 0 1 0-.995.103l.305 2.923a.5.5 0 1 0 .995-.104zm3.048.103a.5.5 0 1 0-.995-.103l-.305 2.922a.5.5 0 1 0 .995.104z" clip-rule="evenodd"/><path fill="#9A9A9A" stroke="#9A9A9A" stroke-width=".5" d="M37.47 27.94a7.4 7.4 0 0 0 3.408-.819l.47.47c.177.177.409.265.642.265a.9.9 0 0 0 .642-.266l1.757-1.757 3.792 3.792a1.102 1.102 0 0 1-.778 1.877c-.293 0-.57-.114-.777-.322l-3.113-3.112a.249.249 0 1 0-.352.353l3.112 3.111c.302.302.703.468 1.13.468s.828-.166 1.13-.468a1.6 1.6 0 0 0 0-2.26l-3.807-3.807a.91.91 0 0 0-.122-1.132l-.473-.474a7.44 7.44 0 0 0 .81-3.389 7.42 7.42 0 0 0-2.189-5.282A7.42 7.42 0 0 0 37.47 13a7.42 7.42 0 0 0-5.282 2.188A7.42 7.42 0 0 0 30 20.47a7.42 7.42 0 0 0 2.188 5.282 7.43 7.43 0 0 0 5.283 2.188Zm6.782-3.255a.41.41 0 0 1 0 .58l-1.973 1.972a.41.41 0 0 1-.58 0l-.369-.37c.512-.31.99-.682 1.422-1.116a7.5 7.5 0 0 0 1.127-1.439zm-11.71-9.144a6.93 6.93 0 0 1 4.929-2.043c1.862 0 3.613.725 4.93 2.043a6.93 6.93 0 0 1 2.042 4.929A6.92 6.92 0 0 1 42.4 25.4a6.93 6.93 0 0 1-4.93 2.042 6.92 6.92 0 0 1-4.93-2.043A6.93 6.93 0 0 1 30.5 20.47c0-1.862.726-3.612 2.042-4.93Z"/><path fill="#E1EAF8" d="M41.389 16.611a5.5 5.5 0 1 0-7.778 7.777 5.5 5.5 0 0 0 7.778-7.777m-.431.761a.234.234 0 0 1-.33 0 4.43 4.43 0 0 0-2.682-1.273.234.234 0 1 1 .047-.465 4.9 4.9 0 0 1 2.965 1.408.23.23 0 0 1 0 .33m.832 1.297a.233.233 0 0 1-.313-.108 4 4 0 0 0-.233-.418.234.234 0 0 1 .395-.25q.142.225.258.463a.234.234 0 0 1-.107.313"/></svg>
